packages/ui-icons/src/Basic/32/Block_32.svg

<svg xmlns="http://www.w3.org/2000/svg" viewBox="0 0 40 40"><path d="M20 4a8 8 0 0 0-8 8v4h-2v10a10 10 0 0 0 20 0V16h-2v-4a8 8 0 0 0-8-8Zm-6 8a6 6 0 0 1 12 0v4H14Zm14 14a8 8 0 0 1-16 0v-8h16Zm-10-2a2 2 0 1 1 3 1.72V30h-2v-4.28A2 2 0 0 1 18 24Z"/></svg>

<svg id="Ready" xmlns="http://www.w3.org/2000/svg" viewBox="0 0 40 40"><title>Megaicons_work_32_1.8_cp</title><path d="M20,4a8,8,0,0,0-8,8v4H10V26a10,10,0,0,0,20,0V16H28V12A8,8,0,0,0,20,4Zm-6,8a6,6,0,0,1,12,0v4H14ZM28,26a8,8,0,0,1-16,0V18H28ZM18,24a2,2,0,1,1,3,1.72V30H19V25.72A2,2,0,0,1,18,24Z"/></svg>
